local/share/icons/dracula-icons-main/scalable/mimetypes/application-x-skg.svg

<?xml version="1.0" encoding="UTF-8"?>
<svg xmlns="http://www.w3.org/2000/svg" xmlns:xlink="http://www.w3.org/1999/xlink" width="64" height="64" viewBox="0 0 64 64">
<defs>
<filter id="filter-remove-color" x="0%" y="0%" width="100%" height="100%">
<feColorMatrix color-interpolation-filters="sRGB" values="0 0 0 0 1 0 0 0 0 1 0 0 0 0 1 0 0 0 1 0" />
</filter>
<mask id="mask-0">
<g filter="url(#filter-remove-color)">
<rect x="-6.4" y="-6.4" width="76.8" height="76.8" fill="rgb(0%, 0%, 0%)" fill-opacity="0.15"/>
</g>
</mask>
<linearGradient id="linear-pattern-0" gradientUnits="userSpaceOnUse" x1="49.570999" y1="52.714001" x2="51.714001" y2="54.856998" gradientTransform="matrix(2.3333, 0, 0, 2.3333, -68.667, -72.000999)">
<stop offset="0" stop-color="rgb(0%, 0%, 0%)" stop-opacity="1"/>
<stop offset="1" stop-color="rgb(0%, 0%, 0%)" stop-opacity="0"/>
</linearGradient>
<clipPath id="clip-0">
<rect x="0" y="0" width="64" height="64"/>
</clipPath>
<g id="source-962" clip-path="url(#clip-0)">
<path fill-rule="evenodd" fill="url(#linear-pattern-0)" d="M 56 46 L 42 60 L 51 60 C 53.769531 60 56 57.769531 56 55 Z M 56 46 "/>
</g>
</defs>
<path fill-rule="nonzero" fill="rgb(96.078431%, 59.607843%, 4.705882%)" fill-opacity="1" d="M 13 4 L 51 4 C 53.761719 4 56 6.238281 56 9 L 56 55 C 56 57.761719 53.761719 60 51 60 L 13 60 C 10.238281 60 8 57.761719 8 55 L 8 9 C 8 6.238281 10.238281 4 13 4 Z M 13 4 "/>
<g mask="url(#mask-0)">
<use xlink:href="#source-962"/>
</g>
<path fill-rule="nonzero" fill="rgb(99.215686%, 86.666667%, 63.921569%)" fill-opacity="1" d="M 22 27 L 22 28 L 21 28 L 21 40 L 22 40 L 22 41 L 42 41 L 42 40 L 43 40 L 43 28 L 42 28 L 42 27 Z M 23 28 L 41 28 C 41 28.550781 41.449219 29 42 29 L 42 39 C 41.449219 39 41 39.449219 41 40 L 23 40 C 23 39.449219 22.550781 39 22 39 L 22 29 C 22.550781 29 23 28.550781 23 28 M 32 30 C 29.789062 30 28 31.789062 28 34 C 28 36.210938 29.789062 38 32 38 C 34.210938 38 36 36.210938 36 34 C 36 31.789062 34.210938 30 32 30 M 32 31 C 33.65625 31 35 32.34375 35 34 C 35 35.65625 33.65625 37 32 37 C 30.34375 37 29 35.65625 29 34 C 29 32.34375 30.34375 31 32 31 "/>
</svg>

<svg width="64" height="64" version="1.1" viewBox="0 0 64 64" xmlns="http://www.w3.org/2000/svg">
 <defs>
  <linearGradient id="a" x1="49.571" x2="51.714" y1="52.714" y2="54.857" gradientTransform="matrix(2.3333,0,0,2.3333,-68.667,-72.001)" gradientUnits="userSpaceOnUse">
   <stop offset="0"/>
   <stop stop-opacity="0" offset="1"/>
  </linearGradient>
 </defs>
 <g transform="scale(1)">
  <rect x="8" y="4" width="48" height="56" ry="5" fill="#f5980c" style="paint-order:stroke fill markers"/>
  <path d="m56 46-14 14h9c2.77 0 5-2.23 5-5z" fill="url(#a)" fill-rule="evenodd" opacity=".15" stroke-width="8.8191" style="paint-order:stroke fill markers"/>
 </g>
 <path d="m22 27v1h-1v12h1v1h20v-1h1v-12h-1v-1zm1 1h18a1 1 0 0 0 1 1v10a1 1 0 0 0-1 1h-18a1 1 0 0 0-1-1v-10a1 1 0 0 0 1-1m9 2a4 4 0 0 0-4 4 4 4 0 0 0 4 4 4 4 0 0 0 4-4 4 4 0 0 0-4-4m0 1a3 3 0 0 1 3 3 3 3 0 0 1-3 3 3 3 0 0 1-3-3 3 3 0 0 1 3-3" fill="#fddda3" stroke-width="2"/>
</svg>
